Numix-GalliumOS/64/mimetypes/wps-office-ppt.svg

<svg xmlns="http://www.w3.org/2000/svg" xmlns:xlink="http://www.w3.org/1999/xlink" width="64px" height="64px" viewBox="0 0 64 64" version="1.1">
<g id="surface1">
<path style=" stroke:none;fill-rule:nonzero;fill:rgb(81.960784%,27.45098%,14.901961%);fill-opacity:1;" d="M 10.671875 0 C 9.296875 0 8 1.355469 8 2.789062 L 8 61.210938 C 8 62.566406 9.375 64 10.671875 64 L 53.328125 64 C 54.625 64 56 62.566406 56 61.210938 L 56 18 L 38 0 Z M 10.671875 0 "/>
<path style=" stroke:none;fill-rule:nonzero;fill:rgb(0%,0%,0%);fill-opacity:0.196078;" d="M 42 18 L 56 32 L 56 18 Z M 42 18 "/>
<path style=" stroke:none;fill-rule:nonzero;fill:rgb(100%,100%,100%);fill-opacity:0.392157;" d="M 38 0 L 55.984375 18 L 40.757812 18 C 39.410156 18 38 16.574219 38 15.226562 Z M 38 0 "/>
<path style=" stroke:none;fill-rule:nonzero;fill:rgb(0%,0%,0%);fill-opacity:0.196078;" d="M 8 48 L 8 61.335938 C 8 62.632812 9.375 64 10.664062 64 L 53.335938 64 C 54.625 64 56 62.632812 56 61.335938 L 56 48 Z M 8 48 "/>
<path style=" stroke:none;fill-rule:nonzero;fill:rgb(100%,100%,100%);fill-opacity:1;" d="M 16 24 L 26 24 L 26 30 L 16 30 Z M 16 24 "/>
<path style=" stroke:none;fill-rule:nonzero;fill:rgb(100%,100%,100%);fill-opacity:1;" d="M 21.355469 50.804688 C 22.90625 50.804688 24.101562 51.09375 24.953125 51.683594 C 25.808594 52.25 26.234375 53.191406 26.234375 54.503906 C 26.234375 55.832031 25.808594 56.792969 24.9375 57.382812 C 24.085938 57.972656 22.871094 58.261719 21.289062 58.261719 L 20.425781 58.261719 L 20.425781 62 L 18 62 L 18 51.066406 C 18.238281 51.027344 18.5 50.976562 18.789062 50.945312 C 19.089844 50.910156 19.394531 50.886719 19.699219 50.871094 C 20 50.847656 20.296875 50.828125 20.582031 50.820312 C 20.871094 50.804688 21.125 50.804688 21.355469 50.804688 M 21.625 52.714844 C 21.484375 52.714844 21.28125 52.722656 21.019531 52.730469 C 20.765625 52.730469 20.566406 52.75 20.425781 52.773438 L 20.425781 56.347656 L 21.410156 56.347656 C 22.183594 56.347656 22.773438 56.210938 23.167969 55.9375 C 23.5625 55.652344 23.757812 55.167969 23.757812 54.488281 C 23.757812 53.839844 23.5625 53.386719 23.167969 53.125 C 22.78125 52.855469 22.273438 52.714844 21.625 52.714844 "/>
<path style=" stroke:none;fill-rule:nonzero;fill:rgb(100%,100%,100%);fill-opacity:1;" d="M 31.203125 50.804688 C 32.753906 50.804688 33.953125 51.09375 34.804688 51.683594 C 35.65625 52.25 36.085938 53.191406 36.085938 54.503906 C 36.085938 55.832031 35.65625 56.792969 34.789062 57.382812 C 33.9375 57.972656 32.722656 58.261719 31.148438 58.261719 L 30.277344 58.261719 L 30.277344 62 L 27.851562 62 L 27.851562 51.066406 C 28.085938 51.027344 28.351562 50.976562 28.636719 50.945312 C 28.941406 50.910156 29.246094 50.886719 29.546875 50.871094 C 29.851562 50.847656 30.144531 50.828125 30.433594 50.820312 C 30.71875 50.804688 30.984375 50.804688 31.203125 50.804688 M 31.476562 52.714844 C 31.335938 52.714844 31.128906 52.722656 30.867188 52.730469 C 30.613281 52.730469 30.417969 52.75 30.277344 52.773438 L 30.277344 56.347656 L 31.261719 56.347656 C 32.03125 56.347656 32.625 56.210938 33.015625 55.9375 C 33.410156 55.652344 33.609375 55.167969 33.609375 54.488281 C 33.609375 53.839844 33.410156 53.386719 33.015625 53.125 C 32.632812 52.855469 32.121094 52.714844 31.476562 52.714844 "/>
<path style=" stroke:none;fill-rule:nonzero;fill:rgb(100%,100%,100%);fill-opacity:1;" d="M 46 50.929688 L 46 52.75 L 42.785156 52.75 L 42.785156 62 L 40.339844 62 L 40.339844 52.75 L 37.132812 52.75 L 37.132812 50.929688 L 46 50.929688 "/>
<path style=" stroke:none;fill-rule:nonzero;fill:rgb(100%,100%,100%);fill-opacity:1;" d="M 16 34 L 26 34 L 26 40 L 16 40 Z M 16 34 "/>
<path style=" stroke:none;fill-rule:nonzero;fill:rgb(100%,100%,100%);fill-opacity:1;" d="M 40 21.984375 L 40 30 L 48 30 C 48 25.570312 44.417969 21.984375 40 21.984375 Z M 40 21.984375 "/>
<path style=" stroke:none;fill-rule:nonzero;fill:rgb(100%,100%,100%);fill-opacity:1;" d="M 38.003906 24 C 33.585938 24 30 27.578125 30 32 C 30 36.421875 33.585938 40 38.003906 40 C 42.421875 40 46 36.421875 46 32 L 38.003906 32 Z M 38.003906 24 "/>
</g>
</svg>

<svg xmlns="http://www.w3.org/2000/svg" viewBox="0 0 64 64">
 <g>
  <path d="m 10.672 0 c -1.375 0 -2.672 1.355 -2.672 2.789 l 0 58.42 c 0 1.355 1.375 2.789 2.672 2.789 l 42.656 0 c 1.297 0 2.672 -1.434 2.672 -2.789 l 0 -43.21 l -18 -18 m -27.328 0" style="fill:#d04526;fill-opacity:1;stroke:none;fill-rule:nonzero"/>
  <path d="m 42 18 l 14 14 l 0 -14 m -14 0" style="fill:#000;fill-opacity:0.196;stroke:none;fill-rule:nonzero"/>
  <path d="m 38 0 l 17.984 18 l -15.227 0 c -1.348 0 -2.758 -1.426 -2.758 -2.773 m 0 -15.227" style="fill:#fff;fill-opacity:0.392;stroke:none;fill-rule:nonzero"/>
  <path d="m 8 48 l 0 13.336 c 0 1.297 1.375 2.664 2.664 2.664 l 42.672 0 c 1.289 0 2.664 -1.367 2.664 -2.664 l 0 -13.336 m -48 0" style="fill:#000;fill-opacity:0.196;stroke:none;fill-rule:nonzero"/>
  <path d="m 16 24 l 10 0 l 0 6 l -10 0 m 0 -6" style="fill:#fff;fill-opacity:1;stroke:none;fill-rule:nonzero"/>
  <path d="m 21.355 50.805 c 1.551 0 2.746 0.289 3.598 0.879 c 0.855 0.566 1.281 1.508 1.281 2.82 c 0 1.328 -0.426 2.289 -1.297 2.879 c -0.852 0.59 -2.066 0.879 -3.648 0.879 l -0.863 0 l 0 3.738 l -2.426 0 l 0 -10.934 c 0.238 -0.039 0.5 -0.09 0.789 -0.121 c 0.301 -0.035 0.605 -0.059 0.91 -0.074 c 0.301 -0.023 0.598 -0.043 0.883 -0.051 c 0.289 -0.016 0.543 -0.016 0.773 -0.016 m 0.27 1.91 c -0.141 0 -0.344 0.008 -0.605 0.016 c -0.254 0 -0.453 0.02 -0.594 0.043 l 0 3.574 l 0.984 0 c 0.773 0 1.363 -0.137 1.758 -0.41 c 0.395 -0.285 0.59 -0.77 0.59 -1.449 c 0 -0.648 -0.195 -1.102 -0.59 -1.363 c -0.387 -0.27 -0.895 -0.41 -1.543 -0.41" style="fill:#fff;fill-opacity:1;stroke:none;fill-rule:nonzero"/>
  <path d="m 31.2 50.805 c 1.551 0 2.75 0.289 3.602 0.879 c 0.852 0.566 1.281 1.508 1.281 2.82 c 0 1.328 -0.43 2.289 -1.297 2.879 c -0.852 0.59 -2.066 0.879 -3.641 0.879 l -0.871 0 l 0 3.738 l -2.426 0 l 0 -10.934 c 0.234 -0.039 0.5 -0.09 0.785 -0.121 c 0.305 -0.035 0.609 -0.059 0.91 -0.074 c 0.305 -0.023 0.598 -0.043 0.887 -0.051 c 0.285 -0.016 0.551 -0.016 0.77 -0.016 m 0.273 1.91 c -0.141 0 -0.348 0.008 -0.609 0.016 c -0.254 0 -0.449 0.02 -0.59 0.043 l 0 3.574 l 0.984 0 c 0.77 0 1.363 -0.137 1.754 -0.41 c 0.395 -0.285 0.594 -0.77 0.594 -1.449 c 0 -0.648 -0.199 -1.102 -0.594 -1.363 c -0.383 -0.27 -0.895 -0.41 -1.539 -0.41" style="fill:#fff;fill-opacity:1;stroke:none;fill-rule:nonzero"/>
  <path d="m 46 50.93 l 0 1.82 l -3.215 0 l 0 9.25 l -2.445 0 l 0 -9.25 l -3.207 0 l 0 -1.82 l 8.867 0" style="fill:#fff;fill-opacity:1;stroke:none;fill-rule:nonzero"/>
  <path d="m 16 34 l 10 0 l 0 6 l -10 0 m 0 -6" style="fill:#fff;fill-opacity:1;stroke:none;fill-rule:nonzero"/>
  <path d="m 40 21.984 l 0 8.02 l 8 0 c 0 -4.43 -3.582 -8.02 -8 -8.02 m 0 0" style="fill:#fff;fill-opacity:1;stroke:none;fill-rule:nonzero"/>
  <path d="m 38 24 c -4.418 0 -8 3.578 -8 8 c 0 4.422 3.586 8 8 8 c 4.418 0 7.996 -3.578 7.996 -8 l -7.996 0 m 0 -8" style="fill:#fff;fill-opacity:1;stroke:none;fill-rule:nonzero"/>
 </g>
</svg>
